frontend/src/assets/svgs/social/linkedin.svg

<svg viewBox="0 0 32 32" fill="none" xmlns="http://www.w3.org/2000/svg">
<path fill-rule="evenodd" clip-rule="evenodd" d="M1.33331 3.78417C1.33331 3.13421 1.59151 2.51087 2.0511 2.05128C2.51069 1.59169 3.13402 1.3335 3.78398 1.3335H28.2133C28.5354 1.33297 28.8545 1.39598 29.1522 1.51892C29.4499 1.64186 29.7204 1.82231 29.9483 2.04995C30.1762 2.27758 30.3569 2.54793 30.4802 2.84551C30.6035 3.14309 30.6668 3.46207 30.6666 3.78417V28.2135C30.667 28.5357 30.6038 28.8547 30.4807 29.1525C30.3577 29.4502 30.1771 29.7207 29.9493 29.9486C29.7216 30.1764 29.4512 30.3572 29.1535 30.4804C28.8558 30.6037 28.5368 30.667 28.2146 30.6668H3.78398C3.46204 30.6668 3.14326 30.6034 2.84584 30.4802C2.54843 30.3569 2.27821 30.1763 2.05063 29.9486C1.82304 29.7209 1.64256 29.4506 1.51948 29.1531C1.3964 28.8556 1.33314 28.5368 1.33331 28.2148V3.78417ZM12.944 12.5175H16.916V14.5122C17.4893 13.3655 18.956 12.3335 21.16 12.3335C25.3853 12.3335 26.3866 14.6175 26.3866 18.8082V26.5708H22.1106V19.7628C22.1106 17.3762 21.5373 16.0295 20.0813 16.0295C18.0613 16.0295 17.2213 17.4815 17.2213 19.7628V26.5708H12.944V12.5175ZM5.61065 26.3882H9.88798V12.3335H5.61065V26.3868V26.3882ZM10.5 7.7495C10.508 8.11573 10.4429 8.47988 10.3083 8.82059C10.1737 9.16129 9.97245 9.47168 9.71629 9.73354C9.46013 9.99541 9.15424 10.2035 8.81659 10.3455C8.47893 10.4876 8.1163 10.5607 7.74998 10.5607C7.38366 10.5607 7.02103 10.4876 6.68337 10.3455C6.34572 10.2035 6.03983 9.99541 5.78367 9.73354C5.52751 9.47168 5.32624 9.16129 5.19166 8.82059C5.05708 8.47988 4.99192 8.11573 4.99998 7.7495C5.01581 7.03064 5.31249 6.34655 5.82649 5.84375C6.34049 5.34094 7.03095 5.05939 7.74998 5.05939C8.46902 5.05939 9.15947 5.34094 9.67347 5.84375C10.1875 6.34655 10.4842 7.03064 10.5 7.7495Z" fill="currentColor"/>
</svg>

<svg viewBox="0 0 32 32" fill="none" xmlns="http://www.w3.org/2000/svg"><path fill-rule="evenodd" clip-rule="evenodd" d="M1.333 3.784a2.45 2.45 0 0 1 2.451-2.45h24.43a2.45 2.45 0 0 1 2.453 2.45v24.43a2.45 2.45 0 0 1-2.452 2.453H3.784a2.451 2.451 0 0 1-2.45-2.452V3.785Zm11.611 8.734h3.972v1.994c.573-1.146 2.04-2.178 4.244-2.178 4.225 0 5.227 2.284 5.227 6.474v7.763H22.11v-6.808c0-2.387-.574-3.734-2.03-3.734-2.02 0-2.86 1.453-2.86 3.734v6.808h-4.277V12.517Zm-7.333 13.87h4.277V12.333H5.611v14.055ZM10.5 7.75a2.751 2.751 0 1 1-5.502.121 2.751 2.751 0 0 1 5.502-.12Z" fill="currentColor"/></svg>
